X: 2
T: Muneira De Celtcuban
R: three-two
M: 3/2
L: 1/8
K: Fdor
K: Cmin
|:C2G,B, C2(D2 E2)D2|C2G,B, C2(E2 F2)D2|C2G,B, C2(E2 F2)G2|A2F2 G2E2 D4:|
c2GA F2G2 E2F2|B2FE D2E2 F2D2|c2GA F2G2 E2F2|D2E2 C2D2 B,4|
c2GA F2G2 E2F2|B2FE D2E2 F2D2|c2G2 A2F2 G2E2|D2F2 E2D2 C4||
K: Ddor
|:F2EF c2A2 F2E2|D2EF G2F2 E4|F2EF c2A2 F2E2|D2F2 E2C2 D4:|

